X: 3368
T: THOU BONNIE WOOD O' CRAIGIELIE
%R: march, reel
B: James Kerr "Merry Melodies" v.3 p.41 #368
Z: 2016 John Chambers <jc:trillian.mit.edu>
M: 2/4
L: 1/16
K: G
(GA) |\
B2Bc A2AB | G2B2E3G | D2G2B2G2 | d2cB A2GA |\
B2Bc A2AB | G2B2E3G | D2G2d2B2 | AGAB G2 :|
|: (Bc) |\
d3ed2B2 | g2f2e2d2 | d3e edcB | B2A2A2 (Bc) |\
d2B2c2d2 | e2f2g3e | d2G2d2B2 | AGAB G2 :|

%%sep 1 1 500
%%sep 1 1 500

